;FLAVOR:RepRap
;TIME:75976
;Filament used: 71.404m
;Layer height: 0.15
;MINX:32.31
;MINY:32.508
;MINZ:0.3
;MAXX:267.689
;MAXY:267.502
;MAXZ:13.35
;Generated with Cura_SteamEngine 5.2.1
T0
M190 S60
M104 S200
M109 S200
M82 ;absolute extrusion mode
G28 ; home all axes
G92 E0
G92 E0
G1 F1500 E-6.5
;LAYER_COUNT:88
;LAYER:0
M107
M204 T1000
G0 F7500 X33.695 Y43.683 Z0.3
M204 P1000
;TYPE:SKIRT
G1 F1500 E0
G1 X34.132 Y43.429 E0.02522
G1 X34.603 Y43.246 E0.05043
G1 X35.098 Y43.14 E0.07568
G1 X35.43 Y43.113 E0.0923
G1 X35.75 Y43.104 E0.10827
G1 X52.486 Y43.103 E0.94323
G1 X55.283 Y43.063 E1.08279
G1 X58 Y42.948 E1.21846
G1 X60.746 Y42.753 E1.35581
G1 X63.452 Y42.485 E1.49147
G1 X66.175 Y42.137 E1.62843
G1 X68.876 Y41.712 E1.76484
G1 X71.584 Y41.209 E1.90225
G1 X74.241 Y40.637 E2.03785
G1 X76.888 Y39.989 E2.17381
G1 X79.528 Y39.262 E2.31042
G1 X82.175 Y38.452 E2.44852
G1 X84.77 Y37.577 E2.58515
G1 X87.306 Y36.641 E2.72001
G1 X89.881 Y35.607 E2.85845
G1 X92.379 Y34.52 E2.99437
G1 X95.529 Y33.029 E3.16824
G1 X95.908 Y32.841 E3.18934
G1 X96.377 Y32.653 E3.21455
G1 X96.87 Y32.541 E3.23977
G1 X97.375 Y32.508 E3.26502
G1 X97.935 Y32.566 E3.29311
G1 X98.499 Y32.675 E3.32177
G1 X100.184 Y33.025 E3.40763
G1 X102.867 Y33.504 E3.5436
G1 X105.591 Y33.91 E3.681
G1 X108.296 Y34.237 E3.81694
G1 X111.034 Y34.489 E3.95411
G1 X113.782 Y34.663 E4.09149
G1 X116.5 Y34.759 E4.22717
G1 X119.252 Y34.778 E4.36447
G1 X121.968 Y34.72 E4.50001
G1 X124.721 Y34.583 E4.63752
G1 X127.431 Y34.371 E4.77314
G1 X130.168 Y34.079 E4.91046
G1 X132.86 Y33.715 E5.04599
G1 X135.581 Y33.268 E5.18356
G1 X138.319 Y32.738 E5.3227
G1 X139.107 Y32.575 E5.36284
G1 X139.608 Y32.512 E5.38803
G1 X140.353 Y32.565 E5.4253
G1 X140.925 Y32.675 E5.45436
G1 X142.61 Y33.025 E5.54022
G1 X145.293 Y33.504 E5.67619
G1 X148.017 Y33.91 E5.81359
G1 X150.722 Y34.237 E5.94953
G1 X153.46 Y34.489 E6.0867
G1 X156.208 Y34.663 E6.22408
G1 X158.926 Y34.759 E6.35976
G1 X161.678 Y34.778 E6.49706
G1 X164.394 Y34.72 E6.63259
G1 X167.147 Y34.583 E6.77011
G1 X169.857 Y34.371 E6.90573
G1 X172.594 Y34.079 E7.04305
G1 X175.286 Y33.715 E7.17858
G1 X178.007 Y33.268 E7.31615
G1 X180.773 Y32.733 E7.4567
G1 X181.534 Y32.575 E7.49548
G1 X182.036 Y32.511 E7.52073
G1 X182.787 Y32.565 E7.55829
G1 X183.285 Y32.661 E7.58359
G1 X185.023 Y33.022 E7.67215
G1 X187.693 Y33.499 E7.80747
G1 X190.427 Y33.908 E7.94539
G1 X193.16 Y34.238 E8.08273
G1 X195.831 Y34.485 E8.21655
G1 X198.617 Y34.662 E8.35583
G1 X201.33 Y34.758 E8.49126
G1 X204.084 Y34.779 E8.62867
G1 X206.801 Y34.721 E8.76425
G1 X209.548 Y34.585 E8.90147
G1 X212.265 Y34.373 E9.03743
G1 X214.994 Y34.083 E9.17435
G1 X217.703 Y33.717 E9.31073
G1 X220.4 Y33.275 E9.44708
G1 X223.192 Y32.734 E9.58896
G1 X223.957 Y32.575 E9.62794
G1 X224.459 Y32.512 E9.65318
G1 X224.964 Y32.528 E9.67839
G1 X225.461 Y32.623 E9.70363
G1 X225.99 Y32.821 E9.73181
G1 X226.516 Y33.073 E9.76091
G1 X228.013 Y33.813 E9.84422
G1 X230.476 Y34.946 E9.97948
G1 X232.989 Y36.016 E10.11575
G1 X235.563 Y37.029 E10.25375
G1 X238.114 Y37.95 E10.38906
G1 X240.724 Y38.809 E10.52615
G1 X243.369 Y39.597 E10.66384
G1 X246.001 Y40.301 E10.79977
G1 X248.668 Y40.934 E10.93652
G1 X251.345 Y41.49 E11.07293
G1 X254.019 Y41.968 E11.20845
G1 X256.751 Y42.376 E11.34626
G1 X259.441 Y42.699 E11.48143
G1 X262.196 Y42.953 E11.61946
G1 X263.299 Y43.021 E11.67459
G1 X264.708 Y43.121 E11.74506
G1 X265.207 Y43.197 E11.77024
G1 X265.689 Y43.35 E11.79547
G1 X266.141 Y43.577 E11.82071
G1 X266.551 Y43.873 E11.84594
G1 X266.909 Y44.229 E11.87113
G1 X267.207 Y44.638 E11.89637
G1 X267.437 Y45.088 E11.92159
G1 X267.593 Y45.569 E11.94681
G1 X267.68 Y46.223 E11.97973
G1 X267.689 Y46.543 E11.9957
G1 X267.689 Y262.689 E22.77927
G1 X267.679 Y263.395 E22.81449
G1 X267.618 Y263.97 E22.84334
G1 X267.542 Y264.355 E22.86292
G1 X267.406 Y264.841 E22.8881
G1 X267.194 Y265.301 E22.91337
G1 X266.88 Y265.761 E22.94115
G1 X266.646 Y266.047 E22.95959
G1 X266.296 Y266.412 E22.98482
G1 X265.927 Y266.695 E23.00802
G1 X265.635 Y266.887 E23.02545
G1 X265.192 Y267.13 E23.05066
G1 X264.597 Y267.331 E23.082
G1 X264.259 Y267.409 E23.0993
G1 X263.599 Y267.49 E23.13248
G1 X262.949 Y267.502 E23.16491
G1 X37.117 Y267.502 E34.43171
G1 X36.407 Y267.491 E34.46714
G1 X35.825 Y267.428 E34.49635
G1 X35.542 Y267.371 E34.51075
G1 X35.056 Y267.232 E34.53597
G1 X34.637 Y267.052 E34.55872
G1 X34.127 Y266.75 E34.58829
G1 X33.839 Y266.521 E34.60665
G1 X33.625 Y266.33 E34.62096
G1 X33.276 Y265.965 E34.64615
G1 X32.997 Y265.563 E34.67056
G1 X32.832 Y265.282 E34.68682
G1 X32.611 Y264.827 E34.71206
G1 X32.464 Y264.342 E34.73734
G1 X32.394 Y264.02 E34.75378
G1 X32.321 Y263.388 E34.78552
G1 X32.311 Y262.669 E34.8214
G1 X32.31 Y46.929 E45.58471
G1 X32.32 Y46.264 E45.61789
G1 X32.368 Y45.761 E45.6431
G1 X32.494 Y45.271 E45.66834
G1 X32.696 Y44.807 E45.69359
G1 X32.968 Y44.381 E45.7188
G1 X33.304 Y44.004 E45.744
G1 X33.695 Y43.683 E45.76924
G1 F1500 E39.26924
;MESH:k100air-Slice.0.stl
G0 F7500 X35.93 Y45.638
G0 X36.215 Y263.56
;TYPE:WALL-INNER
G1 F1500 E45.76924
G1 X36.37 Y263.671 E45.77875
G1 X36.522 Y263.702 E45.78649
G1 X263.469 Y263.702 E57.10892
G1 X263.642 Y263.662 E57.11778
G1 X263.758 Y263.589 E57.12462
G1 X263.857 Y263.449 E57.13317
G1 X263.889 Y263.293 E57.14112
G1 X263.889 Y52.002 E67.68247
G1 X263.889 Y46.904 E67.93681
G1 X256.679 Y46.904 E68.29651
G1 X246.18 Y57.4 E69.03717
G1 X245.989 Y57.487 E69.04764
G1 X245.747 Y57.506 E69.05975
G1 X245.586 Y57.463 E69.06807
G1 X245.427 Y57.363 E69.07744
G1 X224.609 Y36.547 E70.54619
G1 X203.791 Y57.363 E72.01494
G1 X203.604 Y57.474 E72.02579
G1 X203.336 Y57.508 E72.03927
G1 X203.057 Y57.42 E72.05386
G1 X182.183 Y36.547 E73.5266
G1 X161.304 Y57.424 E74.99966
G1 X161.017 Y57.509 E75.01459
G1 X160.854 Y57.5 E75.02273
G1 X160.567 Y57.357 E75.03873
G1 X139.756 Y36.547 E76.50702
G1 X118.945 Y57.357 E77.97532
G1 X118.807 Y57.45 E77.98362
G1 X118.592 Y57.509 E77.99474
G1 X118.288 Y57.454 E78.01016
G1 X118.156 Y57.37 E78.01796
G1 X97.33 Y36.547 E79.48724
G1 X76.449 Y57.424 E80.96037
G1 X76.152 Y57.51 E80.97579
G1 X75.988 Y57.497 E80.984
G1 X75.721 Y57.362 E80.99893
G1 X65.26 Y46.903 E81.73694
G1 X36.11 Y46.903 E83.19124
G1 X36.112 Y263.295 E93.98708
G1 X36.215 Y263.56 E94.00126
G1 F1500 E87.50126
G0 F7500 X36.272 Y263.464
G0 X263.483 Y263.599
G1 F1500 E94.00126
G0 F7500 X263.513 Y264.102
;TYPE:WALL-OUTER
G1 F1500 X263.798 Y264.038 E94.01584
G1 X264.027 Y263.893 E94.02936
G1 X264.241 Y263.575 E94.04848
G1 X264.289 Y263.331 E94.06089
G1 X264.289 Y52.002 E104.60413
G1 X264.289 Y46.504 E104.87843
G1 X256.513 Y46.504 E105.26638
G1 X245.954 Y57.062 E106.01134
G1 X245.804 Y57.11 E106.01919
G1 X245.711 Y57.078 E106.0241
G1 X224.609 Y35.981 E107.51278
G1 X203.512 Y57.074 E109.00115
G1 X203.397 Y57.111 E109.00718
G1 X203.293 Y57.082 E109.01256
G1 X182.183 Y35.981 E110.50167
G1 X161.085 Y57.074 E111.99007
G1 X160.997 Y57.109 E111.9948
G1 X160.865 Y57.088 E112.00147
G1 X139.756 Y35.981 E113.49075
G1 X118.659 Y57.074 E114.97912
G1 X118.563 Y57.11 E114.98423
G1 X118.433 Y57.083 E114.99085
G1 X97.33 Y35.981 E116.47975
G1 X76.229 Y57.077 E117.96836
G1 X76.074 Y57.106 E117.97623
G1 X75.98 Y57.057 E117.98152
G1 X65.426 Y46.503 E118.72616
G1 X35.71 Y46.503 E120.2087
G1 X35.712 Y263.334 E131.02644
G1 X35.757 Y263.567 E131.03828
G1 X35.899 Y263.813 E131.05245
G1 X36.066 Y263.966 E131.06375
G1 X36.239 Y264.053 E131.07341
G1 X36.482 Y264.102 E131.08578
G1 X263.513 Y264.102 E142.4124
G0 F7500 X263.708 Y264.059
G1 F1500 E135.9124
G0 F7500 X263.564 Y263.579
G0 X36.473 Y263.589
G1 F1500 E142.4124
G0 F7500 X36.521 Y263.342
;TYPE:SKIN
G1 F1500 X263.469 Y263.342 E153.73488
G1 X263.529 Y263.289 E153.73888
G1 X263.529 Y52.001 E164.28008
G1 X263.529 Y47.264 E164.51641
G1 X256.83 Y47.264 E164.85062
G1 X246.426 Y57.665 E165.58457
G1 X246.015 Y57.857 E165.60721
G1 X245.527 Y57.826 E165.6316
G1 X245.242 Y57.686 E165.64744
G1 X224.609 Y37.057 E167.10307
G1 X204.022 Y57.641 E168.55549
G1 X203.617 Y57.851 E168.57825
G1 X203.205 Y57.853 E168.59881
G1 X202.955 Y57.765 E168.61203
G1 X202.748 Y57.619 E168.62467
G1 X182.183 Y37.056 E170.07557
G1 X161.529 Y57.703 E171.53257
G1 X161.189 Y57.85 E171.55105
G1 X160.806 Y57.858 E171.57016
G1 X160.54 Y57.772 E171.58411
G1 X160.34 Y57.639 E171.59609
G1 X139.756 Y37.057 E173.04834
G1 X119.075 Y57.734 E174.50735
G1 X118.644 Y57.866 E174.52984
G1 X118.348 Y57.852 E174.54462
G1 X118.096 Y57.762 E174.55797
G1 X117.888 Y57.614 E174.57071
G1 X97.33 Y37.056 E176.02119
G1 X76.745 Y57.638 E177.47346
G1 X76.554 Y57.771 E177.48508
G1 X76.286 Y57.858 E177.49913
G1 X75.937 Y57.857 E177.51655
G1 X75.523 Y57.672 E177.53917
G1 X65.11 Y47.263 E178.27372
G1 X36.47 Y47.263 E179.70258
G1 X36.472 Y263.242 E190.47781
G1 X36.521 Y263.342 E190.48337
G0 F7500 X36.671 Y262.945
G1 F1500 X36.865 Y263.139 E190.49706
G0 F7500 X37.431 Y263.139
G1 F1500 X36.671 Y262.379 E190.55068
G0 F7500 X36.671 Y261.814
G1 F1500 X37.997 Y263.139 E190.6442
G0 F7500 X38.562 Y263.139
G1 F1500 X36.671 Y261.248 E190.77762
G0 F7500 X36.671 Y260.682
G1 F1500 X39.128 Y263.139 E190.95097
G0 F7500 X39.694 Y263.139
G1 F1500 X36.671 Y260.117 E191.16423
G0 F7500 X36.671 Y259.551
G1 F1500 X40.259 Y263.139 E191.41738
G0 F7500 X40.825 Y263.139
G1 F1500 X36.671 Y258.985 E191.71047
G0 F7500 X36.671 Y258.419
G1 F1500 X41.391 Y263.139 E192.04349
G0 F7500 X41.956 Y263.139
G1 F1500 X36.671 Y257.854 E192.41637
G0 F7500 X36.671 Y257.288
G1 F1500 X42.522 Y263.139 E192.82919
G0 F7500 X43.088 Y263.139
G1 F1500 X36.671 Y256.722 E193.28195
G0 F7500 X36.671 Y256.157
G1 F1500 X43.653 Y263.139 E193.77457
G0 F7500 X44.219 Y263.139
G1 F1500 X36.671 Y255.591 E194.30712
G0 F7500 X36.671 Y255.025
G1 F1500 X44.785 Y263.139 E194.8796
G0 F7500 X45.351 Y263.139
G1 F1500 X36.671 Y254.46 E195.49199
G0 F7500 X36.671 Y253.894
G1 F1500 X45.916 Y263.139 E196.14427
G0 F7500 X46.482 Y263.139
G1 F1500 X36.671 Y253.328 E196.83649
G0 F7500 X36.671 Y252.763
G1 F1500 X47.048 Y263.139 E197.56861
G0 F7500 X47.613 Y263.139
G1 F1500 X36.671 Y252.197 E198.34063
G0 F7500 X36.671 Y251.631
G1 F1500 X48.179 Y263.139 E199.15258
G0 F7500 X48.745 Y263.139
G1 F1500 X36.671 Y251.066 E200.00443
G0 F7500 X36.671 Y250.5
G1 F1500 X49.31 Y263.139 E200.89618
G0 F7500 X49.876 Y263.139
G1 F1500 X36.671 Y249.934 E201.82786
G0 F7500 X36.671 Y249.368
G1 F1500 X50.442 Y263.139 E202.79948
G0 F7500 X51.007 Y263.139
G1 F1500 X36.671 Y248.803 E203.81097
G0 F7500 X36.671 Y248.237
G1 F1500 X51.573 Y263.139 E204.86238
G0 F7500 X52.139 Y263.139
G1 F1500 X36.671 Y247.671 E205.95373
G0 F7500 X36.671 Y247.106
G1 F1500 X52.704 Y263.139 E207.08495
G0 F7500 X53.27 Y263.139
G1 F1500 X36.671 Y246.54 E208.2561
G0 F7500 X36.671 Y245.974
G1 F1500 X53.836 Y263.139 E209.46718
G0 F7500 X54.401 Y263.139
G1 F1500 X36.671 Y245.409 E210.71813
G0 F7500 X36.671 Y244.843
G1 F1500 X54.967 Y263.139 E212.00901
G0 F7500 X55.533 Y263.139
G1 F1500 X36.671 Y244.277 E213.33983
G0 F7500 X36.671 Y243.712
G1 F1500 X56.099 Y263.139 E214.71054
G0 F7500 X56.664 Y263.139
G1 F1500 X36.671 Y243.146 E216.12115
G0 F7500 X36.671 Y242.58
G1 F1500 X57.23 Y263.139 E217.5717
G0 F7500 X57.796 Y263.139
G1 F1500 X36.671 Y242.015 E219.06215
G0 F7500 X36.671 Y241.449
G1 F1500 X58.361 Y263.139 E220.5925
G0 F7500 X58.927 Y263.139
G1 F1500 X36.671 Y240.883 E222.16278
G0 F7500 X36.671 Y240.318
G1 F1500 X59.493 Y263.139 E223.77296
G0 F7500 X60.058 Y263.139
G1 F1500 X36.671 Y239.752 E225.42304
G0 F7500 X36.671 Y239.186
G1 F1500 X60.624 Y263.139 E227.11305
G0 F7500 X61.19 Y263.139
G1 F1500 X36.671 Y238.62 E228.843
G0 F7500 X36.671 Y238.055
G1 F1500 X61.755 Y263.139 E230.61281
G0 F7500 X62.321 Y263.139
G1 F1500 X36.671 Y237.489 E232.42256
G0 F7500 X36.671 Y236.923
G1 F1500 X62.887 Y263.139 E234.27224
G0 F7500 X63.452 Y263.139
G1 F1500 X36.671 Y236.358 E236.16178
G0 F7500 X36.671 Y235.792
G1 F1500 X64.018 Y263.139 E238.09126
G0 F7500 X64.584 Y263.139
G1 F1500 X36.671 Y235.226 E240.06067
G0 F7500 X36.671 Y234.661
G1 F1500 X65.149 Y263.139 E242.06995
G0 F7500 X65.715 Y263.139
G1 F1500 X36.671 Y234.095 E244.11916
G0 F7500 X36.671 Y233.529
G1 F1500 X66.281 Y263.139 E246.20831
G0 F7500 X66.847 Y263.139
G1 F1500 X36.671 Y232.964 E248.33735
G0 F7500 X36.671 Y232.398
G1 F1500 X67.412 Y263.139 E250.50629
G0 F7500 X67.978 Y263.139
G1 F1500 X36.671 Y231.832 E252.71517
G0 F7500 X36.671 Y231.267
G1 F1500 X68.544 Y263.139 E254.96395
G0 F7500 X69.109 Y263.139
G1 F1500 X36.671 Y230.701 E257.25262
G0 F7500 X36.671 Y230.135
G1 F1500 X69.675 Y263.139 E259.58124
G0 F7500 X70.241 Y263.139
G1 F1500 X36.671 Y229.569 E261.94978
G0 F7500 X36.671 Y229.004
G1 F1500 X70.806 Y263.139 E264.35819
G0 F7500 X71.372 Y263.139
G1 F1500 X36.671 Y228.438 E266.80653
G0 F7500 X36.671 Y227.872
G1 F1500 X71.938 Y263.139 E269.29481
G0 F7500 X72.503 Y263.139
G1 F1500 X36.671 Y227.307 E271.82295
G0 F7500 X36.671 Y226.741
G1 F1500 X73.069 Y263.139 E274.39103
G0 F7500 X73.635 Y263.139
G1 F1500 X36.671 Y226.175 E276.99904
G0 F7500 X36.671 Y225.61
G1 F1500 X74.2 Y263.139 E279.64691
G0 F7500 X74.766 Y263.139
G1 F1500 X36.671 Y225.044 E282.33472
G0 F7500 X36.671 Y224.478
G1 F1500 X75.332 Y263.139 E285.06246
G0 F7500 X75.898 Y263.139
G1 F1500 X36.671 Y223.913 E287.8301
G0 F7500 X36.671 Y223.347
G1 F1500 X76.463 Y263.139 E290.63764
G0 F7500 X77.029 Y263.139
G1 F1500 X36.671 Y222.781 E293.48512
G0 F7500 X36.671 Y222.216
G1 F1500 X77.595 Y263.139 E296.37249
G0 F7500 X78.16 Y263.139
G1 F1500 X36.671 Y221.65 E299.29976
G0 F7500 X36.671 Y221.084
G1 F1500 X78.726 Y263.139 E302.26697
G0 F7500 X79.292 Y263.139
G1 F1500 X36.671 Y220.519 E305.27408
G0 F7500 X36.671 Y219.953
G1 F1500 X79.857 Y263.139 E308.32108
G0 F7500 X80.423 Y263.139
G1 F1500 X36.671 Y219.387 E311.40802
G0 F7500 X36.671 Y218.821
G1 F1500 X80.989 Y263.139 E314.5349
G0 F7500 X81.554 Y263.139
G1 F1500 X36.671 Y218.256 E317.70164
G0 F7500 X36.671 Y217.69
G1 F1500 X82.12 Y263.139 E320.90831
G0 F7500 X82.686 Y263.139
G1 F1500 X36.671 Y217.124 E324.15491
G0 F7500 X36.671 Y216.559
G1 F1500 X83.251 Y263.139 E327.44138
G0 F7500 X83.817 Y263.139
G1 F1500 X36.671 Y215.993 E330.76779
G0 F7500 X36.671 Y215.427
G1 F1500 X84.383 Y263.139 E334.13413
G0 F7500 X84.948 Y263.139
G1 F1500 X36.671 Y214.862 E337.54033
G0 F7500 X36.671 Y214.296
G1 F1500 X85.514 Y263.139 E340.98647
G0 F7500 X86.08 Y263.139
G1 F1500 X36.671 Y213.73 E344.47254
G0 F7500 X36.671 Y213.165
G1 F1500 X86.646 Y263.139 E347.99851
G0 F7500 X87.211 Y263.139
G1 F1500 X36.671 Y212.599 E351.56438
G0 F7500 X36.671 Y212.033
G1 F1500 X87.777 Y263.139 E355.17019
G0 F7500 X88.343 Y263.139
G1 F1500 X36.671 Y211.468 E358.81589
G0 F7500 X36.671 Y210.902
G1 F1500 X88.908 Y263.139 E362.50149
G0 F7500 X89.474 Y263.139
G1 F1500 X36.671 Y210.336 E366.22703
G0 F7500 X36.671 Y209.771
G1 F1500 X90.04 Y263.139 E369.99247
G0 F7500 X90.605 Y263.139
G1 F1500 X36.671 Y209.205 E373.7978
G0 F7500 X36.671 Y208.639
G1 F1500 X91.171 Y263.139 E377.64307
G0 F7500 X91.737 Y263.139
G1 F1500 X36.671 Y208.073 E381.52827
G0 F7500 X36.671 Y207.508
G1 F1500 X92.302 Y263.139 E385.45334
G0 F7500 X92.868 Y263.139
G1 F1500 X36.671 Y206.942 E389.41834
G0 F7500 X36.671 Y206.376
G1 F1500 X93.434 Y263.139 E393.42328
G0 F7500 X93.999 Y263.139
G1 F1500 X36.671 Y205.811 E397.46808
G0 F7500 X36.671 Y205.245
G1 F1500 X94.565 Y263.139 E401.55281
G0 F7500 X95.131 Y263.139
G1 F1500 X36.671 Y204.679 E405.67748
G0 F7500 X36.671 Y204.114
G1 F1500 X95.697 Y263.139 E409.84205
G0 F7500 X96.262 Y263.139
G1 F1500 X36.671 Y203.548 E414.04652
G0 F7500 X36.671 Y202.982
G1 F1500 X96.828 Y263.139 E418.29092
G0 F7500 X97.394 Y263.139
G1 F1500 X36.671 Y202.417 E422.57522
G0 F7500 X36.671 Y201.851
