;FLAVOR:RepRap
;TIME:76266
;Filament used: 71.7101m
;Layer height: 0.15
;MINX:32.311
;MINY:32.498
;MINZ:0.3
;MAXX:267.69
;MAXY:267.491
;MAXZ:13.35
;Generated with Cura_SteamEngine 5.2.1
T0
M190 S60
M104 S200
M109 S200
M82 ;absolute extrusion mode
G28 ; home all axes
G92 E0
G92 E0
G1 F1500 E-6.5
;LAYER_COUNT:88
;LAYER:0
M107
M204 T1000
G0 F7500 X33.596 Y33.704 Z0.3
M204 P1000
;TYPE:SKIRT
G1 F1500 E0
G1 X33.834 Y33.488 E0.01603
G1 X34.234 Y33.179 E0.04125
G1 X34.689 Y32.922 E0.06732
G1 X35.247 Y32.702 E0.09725
G1 X35.567 Y32.623 E0.11369
G1 X35.855 Y32.567 E0.12833
G1 X36.417 Y32.508 E0.15652
G1 X37.074 Y32.498 E0.1893
G1 X262.883 Y32.498 E11.45496
G1 X263.593 Y32.509 E11.49039
G1 X264.168 Y32.571 E11.51924
G1 X264.434 Y32.624 E11.53277
G1 X264.921 Y32.761 E11.55801
G1 X265.418 Y32.996 E11.58544
G1 X265.76 Y33.195 E11.60518
G1 X266.176 Y33.483 E11.63042
G1 X266.667 Y33.984 E11.66542
G1 X266.88 Y34.255 E11.68262
G1 X267.16 Y34.675 E11.7078
G1 X267.37 Y35.135 E11.73303
G1 X267.449 Y35.381 E11.74592
G1 X267.564 Y35.798 E11.7675
G1 X267.659 Y36.295 E11.79274
G1 X267.678 Y36.555 E11.80575
G1 X267.688 Y36.897 E11.82282
G1 X267.69 Y253.01 E22.60474
G1 X267.68 Y253.735 E22.64091
G1 X267.633 Y254.239 E22.66617
G1 X267.507 Y254.728 E22.69136
G1 X267.306 Y255.192 E22.71659
G1 X267.034 Y255.618 E22.7418
G1 X266.699 Y255.997 E22.76704
G1 X266.308 Y256.317 E22.79225
G1 X265.787 Y256.612 E22.82212
G1 X264.452 Y257.209 E22.89508
G1 X261.914 Y258.398 E23.0349
G1 X259.493 Y259.617 E23.17014
G1 X257.08 Y260.919 E23.30693
G1 X254.701 Y262.292 E23.44396
G1 X252.378 Y263.72 E23.58001
G1 X250.087 Y265.219 E23.7166
G1 X248.476 Y266.35 E23.8148
G1 X247.636 Y266.928 E23.86567
G1 X247.198 Y267.181 E23.8909
G1 X246.726 Y267.362 E23.91612
G1 X246.231 Y267.466 E23.94136
G1 X245.726 Y267.491 E23.96658
G1 X245.218 Y267.434 E23.99209
G1 X244.704 Y267.335 E24.0182
G1 X242.95 Y266.971 E24.10757
G1 X240.28 Y266.495 E24.24288
G1 X237.545 Y266.087 E24.38084
G1 X234.849 Y265.762 E24.51632
G1 X232.105 Y265.51 E24.65379
G1 X229.36 Y265.336 E24.79102
G1 X226.642 Y265.241 E24.9267
G1 X223.889 Y265.222 E25.06405
G1 X221.169 Y265.281 E25.19979
G1 X218.425 Y265.417 E25.33685
G1 X215.708 Y265.63 E25.47282
G1 X212.977 Y265.921 E25.60984
G1 X210.277 Y266.287 E25.74578
G1 X207.56 Y266.734 E25.88315
G1 X204.812 Y267.266 E26.0228
G1 X204.047 Y267.425 E26.06178
G1 X203.546 Y267.488 E26.08697
G1 X202.791 Y267.434 E26.12473
G1 X202.227 Y267.325 E26.15339
G1 X200.542 Y266.975 E26.23925
G1 X197.859 Y266.496 E26.37522
G1 X195.135 Y266.09 E26.51262
G1 X192.43 Y265.763 E26.64856
G1 X189.692 Y265.511 E26.78574
G1 X186.944 Y265.337 E26.92311
G1 X184.226 Y265.241 E27.0588
G1 X181.474 Y265.222 E27.1961
G1 X178.758 Y265.28 E27.33163
G1 X176.005 Y265.417 E27.46915
G1 X173.295 Y265.629 E27.60476
G1 X170.558 Y265.921 E27.74209
G1 X167.866 Y266.285 E27.87761
G1 X165.145 Y266.732 E28.01518
G1 X162.379 Y267.267 E28.15574
G1 X161.618 Y267.425 E28.19451
G1 X161.116 Y267.489 E28.21976
G1 X160.365 Y267.435 E28.25733
G1 X159.867 Y267.339 E28.28263
G1 X158.129 Y266.978 E28.37119
G1 X155.459 Y266.501 E28.5065
G1 X152.725 Y266.092 E28.64442
G1 X149.992 Y265.762 E28.78176
G1 X147.321 Y265.515 E28.91559
G1 X144.535 Y265.338 E29.05486
G1 X141.822 Y265.242 E29.1903
G1 X139.068 Y265.221 E29.3277
G1 X136.351 Y265.279 E29.46328
G1 X133.604 Y265.415 E29.6005
G1 X130.887 Y265.627 E29.73646
G1 X128.158 Y265.917 E29.87338
G1 X125.449 Y266.283 E30.00976
G1 X122.752 Y266.725 E30.14611
G1 X119.949 Y267.268 E30.28855
G1 X119.193 Y267.425 E30.32707
G1 X118.691 Y267.489 E30.35232
G1 X118.186 Y267.472 E30.37753
G1 X117.935 Y267.434 E30.39019
G1 X117.374 Y267.325 E30.41871
G1 X115.689 Y266.975 E30.50457
G1 X113.006 Y266.496 E30.64054
G1 X110.282 Y266.09 E30.77794
G1 X107.577 Y265.763 E30.91388
G1 X104.839 Y265.511 E31.05105
G1 X102.091 Y265.337 E31.18843
G1 X99.373 Y265.241 E31.32411
G1 X96.621 Y265.222 E31.46141
G1 X93.905 Y265.28 E31.59695
G1 X91.152 Y265.417 E31.73446
G1 X88.442 Y265.629 E31.87008
G1 X85.705 Y265.921 E32.0074
G1 X83.013 Y266.285 E32.14293
G1 X80.292 Y266.732 E32.2805
G1 X77.533 Y267.266 E32.4207
G1 X76.768 Y267.425 E32.45968
G1 X76.267 Y267.488 E32.48488
G1 X75.762 Y267.472 E32.51008
G1 X75.265 Y267.377 E32.53533
G1 X74.738 Y267.18 E32.5634
G1 X74.124 Y266.886 E32.59736
G1 X72.79 Y266.226 E32.67161
G1 X70.282 Y265.074 E32.80931
G1 X67.773 Y264.005 E32.94537
G1 X65.212 Y262.998 E33.08266
G1 X62.667 Y262.081 E33.21762
G1 X60.048 Y261.219 E33.35518
G1 X57.428 Y260.438 E33.49157
G1 X54.773 Y259.729 E33.62867
G1 X52.079 Y259.091 E33.7668
G1 X49.422 Y258.539 E33.90219
G1 X46.755 Y258.064 E34.03734
G1 X44.027 Y257.657 E34.17494
G1 X41.331 Y257.333 E34.31041
G1 X38.575 Y257.079 E34.44849
G1 X35.323 Y256.88 E34.61104
G1 X34.823 Y256.809 E34.63624
G1 X34.34 Y256.661 E34.66144
G1 X33.886 Y256.438 E34.68667
G1 X33.473 Y256.146 E34.71191
G1 X33.111 Y255.793 E34.73713
G1 X32.809 Y255.388 E34.76234
G1 X32.575 Y254.94 E34.78756
G1 X32.414 Y254.46 E34.81281
G1 X32.32 Y253.773 E34.84741
G1 X32.311 Y253.442 E34.86393
G1 X32.311 Y37.216 E45.65149
G1 X32.321 Y36.529 E45.68576
G1 X32.369 Y36.026 E45.71097
G1 X32.464 Y35.631 E45.73124
G1 X32.558 Y35.327 E45.74712
G1 X32.745 Y34.857 E45.77235
G1 X33.017 Y34.384 E45.79957
G1 X33.397 Y33.902 E45.8302
G1 X33.596 Y33.704 E45.8442
G1 F1500 E39.3442
;MESH:k100air-Slice.1.stl
G0 F7500 X35.064 Y35.883
G0 X160.969 Y263.453
;TYPE:WALL-INNER
G1 F1500 E45.8442
G1 X181.803 Y242.624 E47.31398
G1 X182.049 Y242.504 E47.32763
G1 X182.32 Y242.505 E47.34115
G1 X182.564 Y242.625 E47.35472
G1 X203.396 Y263.453 E48.82439
G1 X224.214 Y242.637 E50.29314
G1 X224.351 Y242.547 E50.30132
G1 X224.576 Y242.49 E50.3129
G1 X224.759 Y242.508 E50.32207
G1 X225.034 Y242.665 E50.33787
G1 X245.823 Y263.453 E51.80461
G1 X256.048 Y253.232 E52.5259
G1 X256.199 Y253.142 E52.53467
G1 X256.372 Y253.099 E52.54356
G1 X263.89 Y253.097 E52.91864
G1 X263.89 Y36.801 E63.70969
G1 X263.825 Y36.501 E63.725
G1 X263.754 Y36.41 E63.73076
G1 X263.479 Y36.298 E63.74557
G1 X36.523 Y36.298 E75.06845
G1 X36.371 Y36.329 E75.07619
G1 X36.223 Y36.425 E75.085
G1 X36.112 Y36.649 E75.09747
G1 X36.11 Y253.097 E85.8961
G1 X65.541 Y253.097 E87.36442
G1 X65.73 Y253.138 E87.37407
G1 X65.889 Y253.226 E87.38314
G1 X76.116 Y263.453 E88.10471
G1 X96.934 Y242.638 E89.57342
G1 X97.134 Y242.522 E89.58496
G1 X97.28 Y242.491 E89.5924
G1 X97.521 Y242.52 E89.60451
G1 X97.717 Y242.63 E89.61573
G1 X118.543 Y263.453 E91.08501
G1 X139.354 Y242.643 E92.5533
G1 X139.556 Y242.523 E92.56502
G1 X139.709 Y242.491 E92.57282
G1 X139.934 Y242.516 E92.58412
G1 X140.143 Y242.63 E92.59599
G1 X160.969 Y263.453 E94.06527
G0 F7500 X160.969 Y264.019
;TYPE:WALL-OUTER
G1 F1500 X182.071 Y242.923 E95.55392
G1 X182.163 Y242.89 E95.5588
G1 X182.294 Y242.922 E95.56553
G1 X203.396 Y264.019 E97.05421
G1 X224.493 Y242.926 E98.54258
G1 X224.59 Y242.89 E98.54774
G1 X224.721 Y242.923 E98.55448
G1 X245.823 Y264.019 E100.04313
G1 X256.294 Y253.548 E100.78191
G1 X256.41 Y253.497 E100.78823
G1 X264.29 Y253.497 E101.18137
G1 X264.29 Y36.801 E111.99238
G1 X264.289 Y36.679 E111.99846
G1 X264.189 Y36.318 E112.01715
G1 X264.024 Y36.106 E112.03055
G1 X263.756 Y35.946 E112.04613
G1 X263.518 Y35.898 E112.05824
G1 X36.483 Y35.898 E123.38506
G1 X36.24 Y35.947 E123.39743
G1 X35.921 Y36.157 E123.41648
G1 X35.785 Y36.361 E123.42871
G1 X35.712 Y36.585 E123.44047
G1 X35.71 Y253.497 E134.26225
G1 X65.591 Y253.501 E135.75302
G1 X76.116 Y264.019 E136.49537
G1 X97.214 Y242.926 E137.98377
G1 X97.302 Y242.891 E137.9885
G1 X97.434 Y242.911 E137.99516
G1 X118.543 Y264.019 E139.48448
G1 X139.644 Y242.923 E140.97309
G1 X139.728 Y242.891 E140.97757
G1 X139.866 Y242.917 E140.98458
G1 X160.969 Y264.019 E142.47347
G0 F7500 X161.11 Y263.878
G0 X160.97 Y262.946
;TYPE:SKIN
G1 F1500 X181.554 Y242.362 E143.92579
G1 X181.834 Y242.19 E143.94218
G1 X182.082 Y242.134 E143.95487
G1 X182.411 Y242.155 E143.97131
G1 X182.726 Y242.284 E143.9883
G1 X203.395 Y262.944 E145.44629
G1 X223.978 Y242.366 E146.89835
G1 X224.145 Y242.244 E146.90867
G1 X224.508 Y242.134 E146.92759
G1 X224.903 Y242.172 E146.94739
G1 X225.192 Y242.32 E146.96359
G1 X245.824 Y262.943 E148.41897
G1 X255.811 Y252.96 E149.12347
G1 X256.108 Y252.788 E149.14059
G1 X256.32 Y252.743 E149.1514
G1 X263.532 Y252.737 E149.51121
G1 X263.53 Y36.801 E160.2843
G1 X263.46 Y36.658 E160.29225
G1 X36.576 Y36.658 E171.61153
G1 X36.472 Y36.697 E171.61708
G1 X36.47 Y252.737 E182.39535
G1 X65.6 Y252.743 E183.84866
G1 X66.051 Y252.878 E183.87214
G1 X76.116 Y262.943 E184.58228
G1 X96.776 Y242.285 E186.03989
G1 X97.168 Y242.135 E186.06083
G1 X97.682 Y242.196 E186.08665
G1 X97.944 Y242.349 E186.10179
G1 X118.544 Y262.946 E187.55512
G1 X139.147 Y242.345 E189.00871
G1 X139.559 Y242.142 E189.03162
G1 X139.984 Y242.159 E189.05284
G1 X140.365 Y242.34 E189.07388
G1 X160.97 Y262.946 E190.52771
G1 F1500 E184.02771
G0 F7500 X161.151 Y263.129
G0 X139.756 Y242.484
G0 X118.543 Y263.21
G0 X97.33 Y242.484
G0 X76.116 Y263.21
G0 X65.691 Y253.261
G0 X37.01 Y252.997
G1 F1500 E190.52771
G0 F7500 X37.01 Y252.536
G1 F1500 X36.669 Y252.195 E190.55177
G0 F7500 X36.669 Y251.63
G1 F1500 X37.576 Y252.536 E190.61573
G0 F7500 X38.142 Y252.536
G1 F1500 X36.669 Y251.064 E190.71962
G0 F7500 X36.669 Y250.498
G1 F1500 X38.707 Y252.536 E190.86342
G0 F7500 X39.273 Y252.536
G1 F1500 X36.669 Y249.933 E191.04711
G0 F7500 X36.669 Y249.367
G1 F1500 X39.839 Y252.536 E191.27073
G0 F7500 X40.404 Y252.536
G1 F1500 X36.669 Y248.801 E191.53426
G0 F7500 X36.669 Y248.236
G1 F1500 X40.97 Y252.536 E191.83768
G0 F7500 X41.536 Y252.536
G1 F1500 X36.669 Y247.67 E192.18104
G0 F7500 X36.669 Y247.104
G1 F1500 X42.101 Y252.536 E192.5643
G0 F7500 X42.667 Y252.536
G1 F1500 X36.669 Y246.539 E192.98745
G0 F7500 X36.669 Y245.973
G1 F1500 X43.233 Y252.536 E193.45054
G0 F7500 X43.798 Y252.536
G1 F1500 X36.669 Y245.407 E193.95353
G0 F7500 X36.669 Y244.842
G1 F1500 X44.364 Y252.536 E194.49642
G0 F7500 X44.93 Y252.536
G1 F1500 X36.669 Y244.276 E195.07924
G0 F7500 X36.669 Y243.71
G1 F1500 X45.495 Y252.536 E195.70196
G0 F7500 X46.061 Y252.536
G1 F1500 X36.669 Y243.145 E196.36459
G0 F7500 X36.669 Y242.579
G1 F1500 X46.627 Y252.536 E197.06714
G0 F7500 X47.193 Y252.536
G1 F1500 X36.669 Y242.013 E197.80963
G0 F7500 X36.669 Y241.447
G1 F1500 X47.758 Y252.536 E198.59202
G0 F7500 X48.324 Y252.536
G1 F1500 X36.669 Y240.882 E199.41431
G0 F7500 X36.669 Y240.316
G1 F1500 X48.89 Y252.536 E200.27653
G0 F7500 X49.455 Y252.536
G1 F1500 X36.669 Y239.75 E201.17865
G0 F7500 X36.669 Y239.185
G1 F1500 X50.021 Y252.536 E202.12067
G0 F7500 X50.587 Y252.536
G1 F1500 X36.669 Y238.619 E203.10263
G0 F7500 X36.669 Y238.053
G1 F1500 X51.152 Y252.536 E204.12448
G0 F7500 X51.718 Y252.536
G1 F1500 X36.669 Y237.488 E205.18623
G0 F7500 X36.669 Y236.922
G1 F1500 X52.284 Y252.536 E206.28792
G0 F7500 X52.849 Y252.536
G1 F1500 X36.669 Y236.356 E207.42951
G0 F7500 X36.669 Y235.791
G1 F1500 X53.415 Y252.536 E208.61099
G0 F7500 X53.981 Y252.536
G1 F1500 X36.669 Y235.225 E209.83241
G0 F7500 X36.669 Y234.659
G1 F1500 X54.546 Y252.536 E211.09373
G0 F7500 X55.112 Y252.536
G1 F1500 X36.669 Y234.094 E212.39495
G0 F7500 X36.669 Y233.528
G1 F1500 X55.678 Y252.536 E213.7361
G0 F7500 X56.243 Y252.536
G1 F1500 X36.669 Y232.962 E215.11715
G0 F7500 X36.669 Y232.397
G1 F1500 X56.809 Y252.536 E216.5381
G0 F7500 X57.375 Y252.536
G1 F1500 X36.669 Y231.831 E217.99899
G0 F7500 X36.669 Y231.265
G1 F1500 X57.941 Y252.536 E219.49981
G0 F7500 X58.506 Y252.536
G1 F1500 X36.669 Y230.699 E221.04053
G0 F7500 X36.669 Y230.134
G1 F1500 X59.072 Y252.536 E222.62114
G0 F7500 X59.638 Y252.536
G1 F1500 X36.669 Y229.568 E224.24169
G0 F7500 X36.669 Y229.002
G1 F1500 X60.203 Y252.536 E225.90215
G0 F7500 X60.769 Y252.536
G1 F1500 X36.669 Y228.437 E227.6025
G0 F7500 X36.669 Y227.871
G1 F1500 X61.335 Y252.536 E229.34278
G0 F7500 X61.9 Y252.536
G1 F1500 X36.669 Y227.305 E231.12296
G0 F7500 X36.669 Y226.74
G1 F1500 X62.466 Y252.536 E232.94305
G0 F7500 X63.032 Y252.536
G1 F1500 X36.669 Y226.174 E234.80306
G0 F7500 X36.669 Y225.608
G1 F1500 X63.597 Y252.536 E236.70298
G0 F7500 X64.163 Y252.536
G1 F1500 X36.669 Y225.043 E238.64279
G0 F7500 X36.669 Y224.477
G1 F1500 X64.729 Y252.536 E240.62254
G0 F7500 X65.294 Y252.536
G1 F1500 X36.669 Y223.911 E242.64219
G0 F7500 X36.669 Y223.346
G1 F1500 X65.967 Y252.643 E244.70929
G0 F7500 X66.063 Y253.257
G0 X76.116 Y263.21
G0 X76.658 Y262.769
G0 X76.332 Y262.442
G1 F1500 X36.669 Y222.78 E247.50769
G0 F7500 X36.669 Y222.214
G1 F1500 X76.615 Y262.159 E250.32606
G0 F7500 X76.897 Y261.876
G1 F1500 X36.669 Y221.648 E253.16436
G0 F7500 X36.669 Y221.083
G1 F1500 X77.18 Y261.594 E256.02263
G0 F7500 X77.463 Y261.311
G1 F1500 X36.669 Y220.517 E258.90087
G0 F7500 X36.669 Y219.951
G1 F1500 X77.746 Y261.028 E261.79908
G0 F7500 X78.029 Y260.745
G1 F1500 X36.669 Y219.386 E264.71721
G0 F7500 X36.669 Y218.82
G1 F1500 X78.312 Y260.462 E267.65532
G0 F7500 X78.594 Y260.179
G1 F1500 X36.669 Y218.254 E270.61335
G0 F7500 X36.669 Y217.689
G1 F1500 X78.877 Y259.897 E273.59135
G0 F7500 X79.16 Y259.614
G1 F1500 X36.669 Y217.123 E276.58932
G0 F7500 X36.669 Y216.557
G1 F1500 X79.443 Y259.331 E279.60726
G0 F7500 X79.726 Y259.048
G1 F1500 X36.669 Y215.992 E282.64513
G0 F7500 X36.669 Y215.426
G1 F1500 X80.009 Y258.765 E285.70296
G0 F7500 X80.291 Y258.482
G1 F1500 X36.669 Y214.86 E288.78073
G0 F7500 X36.669 Y214.295
G1 F1500 X80.574 Y258.2 E291.87847
G0 F7500 X80.857 Y257.917
G1 F1500 X36.669 Y213.729 E294.99617
G0 F7500 X36.669 Y213.163
G1 F1500 X81.14 Y257.634 E298.13384
G0 F7500 X81.423 Y257.351
G1 F1500 X36.669 Y212.598 E301.29144
G0 F7500 X36.669 Y212.032
G1 F1500 X81.706 Y257.068 E304.46901
G0 F7500 X81.989 Y256.785
G1 F1500 X36.669 Y211.466 E307.66654
G0 F7500 X36.669 Y210.9
G1 F1500 X82.271 Y256.502 E310.88401
G0 F7500 X82.554 Y256.22
G1 F1500 X36.669 Y210.335 E314.12144
G0 F7500 X36.669 Y209.769
G1 F1500 X82.837 Y255.937 E317.37885
G0 F7500 X83.12 Y255.654
G1 F1500 X36.669 Y209.203 E320.65621
G0 F7500 X36.669 Y208.638
G1 F1500 X83.403 Y255.371 E323.95352
G0 F7500 X83.686 Y255.088
G1 F1500 X36.669 Y208.072 E327.27078
G0 F7500 X36.669 Y207.506
G1 F1500 X83.968 Y254.805 E330.60798
G0 F7500 X84.251 Y254.523
G1 F1500 X36.669 Y206.941 E333.96515
G0 F7500 X36.669 Y206.375
G1 F1500 X84.534 Y254.24 E337.34229
G0 F7500 X84.817 Y253.957
G1 F1500 X36.669 Y205.809 E340.73939
G0 F7500 X36.669 Y205.244
G1 F1500 X85.1 Y253.674 E344.15642
G0 F7500 X85.383 Y253.391
G1 F1500 X36.669 Y204.678 E347.59342
G0 F7500 X36.669 Y204.112
G1 F1500 X85.665 Y253.108 E351.05035
G0 F7500 X85.948 Y252.826
G1 F1500 X36.669 Y203.547 E354.52725
G0 F7500 X36.669 Y202.981
G1 F1500 X86.231 Y252.543 E358.02412
G0 F7500 X86.514 Y252.26
G1 F1500 X36.669 Y202.415 E361.54095
G0 F7500 X36.669 Y201.849
G1 F1500 X86.797 Y251.977 E365.07775
G0 F7500 X87.08 Y251.694
G1 F1500 X36.669 Y201.284 E368.63449
G0 F7500 X36.669 Y200.718
G1 F1500 X87.363 Y251.411 E372.21119
G0 F7500 X87.645 Y251.128
G1 F1500 X36.669 Y200.152 E375.80782
G0 F7500 X36.669 Y199.587
G1 F1500 X87.928 Y250.846 E379.42442
G0 F7500 X88.211 Y250.563
G1 F1500 X36.669 Y199.021 E383.06099
G0 F7500 X36.669 Y198.455
G1 F1500 X88.494 Y250.28 E386.71752
G0 F7500 X88.777 Y249.997
G1 F1500 X36.669 Y197.89 E390.39398
G0 F7500 X36.669 Y197.324
G1 F1500 X89.06 Y249.714 E394.09042
G0 F7500 X89.342 Y249.431
G1 F1500 X36.669 Y196.758 E397.80678
G0 F7500 X36.669 Y196.193
G1 F1500 X89.625 Y249.149 E401.54311
G0 F7500 X89.908 Y248.866
G1 F1500 X36.669 Y195.627 E405.29941
G0 F7500 X36.669 Y195.061
G1 F1500 X90.191 Y248.583 E409.07568
G0 F7500 X90.474 Y248.3
